X:96
T:Chloe's Passion
R:slip jig
C:Angus MacDonald, Scotland
Z:hn-slipjig-96
M:9/8
L:1/8
K:Edor
Bef gaf gee | Bef gee fdd | Bef gaf gee | fdd agf gee :|
|: ~B3 gfe faa | ~B3 gfe fdd | ~B3 gfe faa | fdd agf gee :|
|: ~B3 GBB ~A3 | ~B3 GBe Beg | fde faf gee | fdd agf gee :|
|: g2e edB ~e3 | fdd dBA ~B3 |1 g2e edB ege |
fdd agf gee :|2 ~g3 fga gee | ABd fdA ~B3 ||
P:variations
|: Bef gaf g2e | Bef gfe fdd | Bef gaf ~g3 | fef agf gee :|
|: A~B2 gfe faa | A~B2 gfe fdd | A~B2 gfe faa | ~f3 agf gee :|
|: ~B3 ~G3 AGA | ~B3 GB/c/d Beg | fde faf ~g3 | ~f3 agf gee :|
|: g2e edB efg | f2d dBA ~B3 |1 g2e edB efg |
fdd agf gee :|2 ~g3 fga gee | ABd fdA ~B3 ||

